X: 15
T: Boyne Hunt 
M: 4/4
L: 1/8
R: Reel
K: D
BAFA DAFA|DAFA BEE2|BAFA DAFA|ABde fd d2 :|
faaf a2 af|g2ga bee2|1 faaf a2 af|e2 de fd d2 :|
|2 f2 fe d2 dB|ABde fd d2 ||
